X:58
T:All the Way to Galway
B:Terry "Cuz" Teahan "Sliabh Luachra on Parade" 1980
Z:Patrick Cavanagh
M:2/4
L:1/8
R:Polka
K:D
A | de fd | cA Ac | BG GA/B/ | cA Ac | 
de fd | cA Bc | BG AF | D2 D :| 
G | AB AG | AB cA | GA GF | EF GE | 
AB AG | AB cd | cA GE | D2 D :|| 

